app/dist/common/images/chuys-holdings.svg

<svg fill="none" height="18" viewBox="0 0 18 18" width="18" xmlns="http://www.w3.org/2000/svg"><path d="m0 0h18v18h-18z" fill="#ffe100"/><path clip-rule="evenodd" d="m11.7473 7.87283c-.1672.26106-.1886.47561-.1783.55026.1148-.21755.3628-.68206.4366-.79979.034-.05432.0589-.09207.0779-.12098v-.00002c.0325-.04942.048-.07301.0635-.10934.0246-.05758.1599-.23674.3198-.43508.1107-.13737.2863-.32076.4022-.4418v-.00002c.0515-.05373.0912-.09516.1082-.11483.0151-.01752.0395-.05901.0699-.11083.0808-.13745.2041-.34756.3113-.37545.1476-.03838-.1844.67183-.2767.81259-.0922.14076-.2583.29432-.3443.3519-.0506.0338-.0566.04335-.058.04548-.0002.00033-.0003.00048-.0004.00051-.0005.00014-.0013-.0012-.0093-.0012-.0246 0-.0061.17276.1537.26873.036.02157.0632.03861.0839.05156.0425.02657.0574.03595.0636.0319.0034-.00221.0041-.00842.0053-.01802.0003-.00241.0006-.00503.001-.00785.0061-.04479.2459-.23674.3812-.32632.1083-.07166.2747-.17062.3444-.21114.082-.07891.2558-.25465.2952-.32631.0393-.07167-.1804.02985-.2952.08957-.0041-.31991-.0098-.98534 0-1.08771s.1025-.16635.1476-.18555c.0184-.13436.0332-.40309-.0554-.40309-.1107 0-.3382.22394-.621.54386-.1955.221-.702 1.09241-1.0654 1.7177v.00002c-.1627.27983-.2966.51037-.3613.61125zm-6.21203-.20804c.05984-.01557.17953-.13388.17953-.48257 0-.43586-.10473-.49813-.38899-.49813-.28425 0-2.30127 1.12909-2.30127 4.14121-.02553.4888.07965 1.4662.70459 1.4662.62493 0 .92413-.1275.99561-.1912.32226-.3024 1.05111-1.097 1.38839-1.8561l-.12045 1.0205c.03728.0776.15315.2418.31835.2776.189.0409.34197-.4506.49188-.9323l.00003-.0001.00014-.0005c.01382-.0443.02761-.0887.0414-.1325.13078-.4154.43881-1.25331.57647-1.62036-.03441.54013-.09292 1.64186-.05162 1.72786.00927.0193.01771.0394.02612.0595.03839.0916.07605.1814.18898.1814.13767 0 .61573-.7109.6433-2.17699-.11661.46703-.36752 1.40879-.43824 1.43939-.0884.0383-.0442-.62084-.0442-.62084v-.81855c.00087-.08484-.03008-.25451-.16086-.25451-.16348 0-.67155.67618-.89255 1.37966.01287-.47073.06055-1.60062.14836-2.35439.10976-.94221.21952-1.91298.10976-2.35553-.12348.65669-.37594 2.01862-.39789 2.21277-.01363.1205-.06473.46019-.12939.89004-.06557.43587-.14509.96445-.21362 1.45121-.37503.72334-1.27051 2.16994-1.85226 2.16994-.14792.0608-.48057.112-.62771-.1701-.18394-.3527-.07483-1.3956.15832-2.3096s.98346-2.14867 1.31564-2.21798c.15186-.03169.1387.08576.12336.22261-.01821.1625-.03949.35236.20882.35236zm6.83323-1.53654c-.027.01601-.0727.02881-.0404-.04802.0323-.07684.1327-.57626.1788-.81637.0116-.004.0519-.0204.1212-.05402.0865-.04202.2827.006.2884.05402.0046.03842-.3634.59227-.548.86439zm-3.82739 1.74884c.10193-.39478.2218-.45911.26899-.44192.0801.03224.07203.25466.05797.36184-.13859.53618-.35135 1.58274-.09369 1.47949.17146-.06871.32633-.66317.46606-1.19952v-.00001c.12273-.47112.23379-.89742.33416-.88317.1758.02495.11997.4675.09402.67317-.00573.04541-.01.07928-.01.09455 0 .0211-.00878.07507-.01976.14253-.03294.20237-.08565.52618.01976.44849.14054-.10358.64998-1.25516.71588-1.54763.0527-.23397.2579-.25997.3539-.24372-.1516.53416-.3905 1.58297-.1328 1.50498.2576-.07799.7273-1.40494.9299-2.05867.0354-.03681.138-.1283.2654-.19972.1274-.07143.1547-.02976.1525 0 .0859.47255-.4542 1.86931-.5524 2.05623-.0785.14953-.1225.65255-.1347.88537.1934-.1655.4206-.24559.6668-.33239.1408-.04965.2878-.10149.4384-.17277 1.4593-.69098 3.3054-1.1711 3.5006-1.15982.2003.01158.1391.17856.0834.2606-1.4916.16216-3.861 1.4206-4.8593 2.02956-.039.50694-.1208 1.54124-.1364 1.62234s-.1541.2163-.2214.2738c-.0161.0426-.0363.1187-.0342.1872-.0227-.0366-.0436-.0609-.0436-.0356v.4157c0 .0973-.0232.2286-.0348.2821v.3007c-.0113.0096-.0464.0314-.0967.0416-.0117.0024-.0196.0035-.0247.0041-.005.0007-.0072.001-.0074.0018-.0002.0007.0008.0016.0026.0034.0061.0059.0212.0206.0295.0611.0065.0319.0051.1036.0036.1784-.0024.1205-.0049.2489.0254.2311.0394-.023.0847-.2485.1025-.3584.0259.1423.0778.4759.0778.6718 0 .1958-.1395.0816-.2093 0 0 .523-.0289 1.5765-.1446 1.5443-.1002-.0279-.0615-1.2425-.0283-2.2838.0147-.4609.0283-.8878.0283-1.1628 0-.4618.04-.82.0813-1.1905.0229-.2049.0461-.41349.0633-.64542-.60341.38512-1.82961 1.17282-1.90721 1.24312-.07759.0703-.74807.5064-1.0736.7157-.14884.1172-.47307.3516-.57927.3516h-.19309c-.84878.519-2.61152 1.5997-2.87219 1.7705s-.33388.1549-.3379.1256c-.19309.1841-.57444.5022-.55513.3013.02413-.2511 2.3412-1.6072 2.44981-1.6575.07241-.0334.09118-.0892.10995-.1451.00939-.0279.01877-.0558.03487-.0809.03861-.0602 3.38624-2.0686 5.05526-3.0653l.0778-.83228c-.0472.05892-.184.17677-.3539.17677s-.2454-.26024-.2619-.39036c-.1086.29706-.36811.8912-.538.8912s-.24068-.25533-.25484-.383l-.04955.0442c-.12741.41982-.46011 1.03851-.65832 1.03851-.1982 0-.30438-.4051-.30438-.69971s.10618-.75126.2336-1.24474zm2.18729 3.88761c.0493.056.005-.0437-.0342-.1068.0013.0415.0107.0801.0342.1068zm2.1791-3.36509c.1397-.06171.4428-.19829.5377-.25095.1186-.06582.3717-.17279.3915-.16867.0197.00411.0237.06582-.0594.10696-.083.04114-.3677.1769-.4823.21393-.0298.00961-.0703.02589-.1138.04342-.1242.04997-.2737.11013-.2737.05531zm-2.259 2.74849c.0038-.0842.0169-.2596.0395-.2878.0282-.0353.0847-.0705.1129 0 .0226.0564-.0658.2545-.1129.3466z" fill="#e50019" fill-rule="evenodd"/></svg>

<!-- by TradingView --><svg width="18" height="18" viewBox="0 0 18 18" fill="none" xmlns="http://www.w3.org/2000/svg">
<rect width="18" height="18" fill="#FFE100"/>
<path fill-rule="evenodd" clip-rule="evenodd" d="M11.7473 7.87283C11.5801 8.13389 11.5587 8.34844 11.569 8.42309C11.6838 8.20554 11.9318 7.74103 12.0056 7.6233C12.0396 7.56898 12.0645 7.53123 12.0835 7.50232L12.0835 7.5023C12.116 7.45288 12.1315 7.42929 12.147 7.39296C12.1716 7.33538 12.3069 7.15622 12.4668 6.95788C12.5775 6.82051 12.7531 6.63712 12.869 6.51608L12.869 6.51606C12.9205 6.46233 12.9602 6.4209 12.9772 6.40123C12.9923 6.38371 13.0167 6.34222 13.0471 6.2904C13.1279 6.15295 13.2512 5.94284 13.3584 5.91495C13.506 5.87657 13.174 6.58678 13.0817 6.72754C12.9895 6.8683 12.8234 7.02186 12.7374 7.07944C12.6868 7.11324 12.6808 7.12279 12.6794 7.12492C12.6792 7.12525 12.6791 7.1254 12.679 7.12543C12.6785 7.12557 12.6777 7.12423 12.6697 7.12423C12.6451 7.12423 12.6636 7.29699 12.8234 7.39296C12.8594 7.41453 12.8866 7.43157 12.9073 7.44452C12.9498 7.47109 12.9647 7.48047 12.9709 7.47642C12.9743 7.47421 12.975 7.468 12.9762 7.4584C12.9765 7.45599 12.9768 7.45337 12.9772 7.45055C12.9833 7.40576 13.2231 7.21381 13.3584 7.12423C13.4667 7.05257 13.6331 6.95361 13.7028 6.91309C13.7848 6.83418 13.9586 6.65844 13.998 6.58678C14.0373 6.51511 13.8176 6.61663 13.7028 6.67635C13.6987 6.35644 13.693 5.69101 13.7028 5.58864C13.7126 5.48627 13.8053 5.42229 13.8504 5.40309C13.8688 5.26873 13.8836 5 13.795 5C13.6843 5 13.4568 5.22394 13.174 5.54386C12.9785 5.76486 12.472 6.63627 12.1086 7.26156L12.1086 7.26158C11.9459 7.54141 11.812 7.77195 11.7473 7.87283ZM5.53527 7.66479C5.59511 7.64922 5.7148 7.53091 5.7148 7.18222C5.7148 6.74636 5.61007 6.68409 5.32581 6.68409C5.04156 6.68409 3.02454 7.81318 3.02454 10.8253C2.99901 11.3141 3.10419 12.2915 3.72913 12.2915C4.35406 12.2915 4.65326 12.164 4.72474 12.1003C5.047 11.7979 5.77585 11.0033 6.11313 10.2442L5.99268 11.2647C6.02996 11.3423 6.14583 11.5065 6.31103 11.5423C6.50003 11.5832 6.653 11.0917 6.80291 10.61L6.80294 10.6099L6.80308 10.6094C6.8169 10.5651 6.83069 10.5207 6.84448 10.4769C6.97526 10.0615 7.28329 9.22359 7.42095 8.85654C7.38654 9.39667 7.32803 10.4984 7.36933 10.5844C7.3786 10.6037 7.38704 10.6238 7.39545 10.6439C7.43384 10.7355 7.4715 10.8253 7.58443 10.8253C7.7221 10.8253 8.20016 10.1144 8.22773 8.64831C8.11112 9.11534 7.86021 10.0571 7.78949 10.0877C7.70109 10.126 7.74529 9.46686 7.74529 9.46686V8.64831C7.74616 8.56347 7.71521 8.3938 7.58443 8.3938C7.42095 8.3938 6.91288 9.06998 6.69188 9.77346C6.70475 9.30273 6.75243 8.17284 6.84024 7.41907C6.95 6.47686 7.05976 5.50609 6.95 5.06354C6.82652 5.72023 6.57406 7.08216 6.55211 7.27631C6.53848 7.39681 6.48738 7.7365 6.42272 8.16635C6.35715 8.60222 6.27763 9.1308 6.2091 9.61756C5.83407 10.3409 4.93859 11.7875 4.35684 11.7875C4.20892 11.8483 3.87627 11.8995 3.72913 11.6174C3.54519 11.2647 3.6543 10.2218 3.88745 9.3078C4.1206 8.3938 4.87091 7.15913 5.20309 7.08982C5.35495 7.05813 5.34179 7.17558 5.32645 7.31243C5.30824 7.47493 5.28696 7.66479 5.53527 7.66479ZM12.3685 6.12825C12.3415 6.14426 12.2958 6.15706 12.3281 6.08023C12.3604 6.00339 12.4608 5.50397 12.5069 5.26386C12.5185 5.25986 12.5588 5.24346 12.6281 5.20984C12.7146 5.16782 12.9108 5.21584 12.9165 5.26386C12.9211 5.30228 12.5531 5.85613 12.3685 6.12825ZM8.54111 7.87709C8.64304 7.48231 8.76291 7.41798 8.8101 7.43517C8.8902 7.46741 8.88213 7.68983 8.86807 7.79701C8.72948 8.33319 8.51672 9.37975 8.77438 9.2765C8.94584 9.20779 9.10071 8.61333 9.24044 8.07698L9.24044 8.07697C9.36317 7.60585 9.47423 7.17955 9.5746 7.1938C9.7504 7.21875 9.69457 7.6613 9.66862 7.86697C9.66289 7.91238 9.65862 7.94625 9.65862 7.96152C9.65862 7.98262 9.64984 8.03659 9.63886 8.10405C9.60592 8.30642 9.55321 8.63023 9.65862 8.55254C9.79916 8.44896 10.3086 7.29738 10.3745 7.00491C10.4272 6.77094 10.6324 6.74494 10.7284 6.76119C10.5768 7.29535 10.3379 8.34416 10.5956 8.26617C10.8532 8.18818 11.3229 6.86123 11.5255 6.2075C11.5609 6.17069 11.6635 6.0792 11.7909 6.00778C11.9183 5.93635 11.9456 5.97802 11.9434 6.00778C12.0293 6.48033 11.4892 7.87709 11.391 8.06401C11.3125 8.21354 11.2685 8.71656 11.2563 8.94938C11.4497 8.78388 11.6769 8.70379 11.9231 8.61699C12.0639 8.56734 12.2109 8.5155 12.3615 8.44422C13.8208 7.75324 15.6669 7.27312 15.8621 7.2844C16.0624 7.29598 16.0012 7.46296 15.9455 7.545C14.4539 7.70716 12.0845 8.9656 11.0862 9.57456C11.0472 10.0815 10.9654 11.1158 10.9498 11.1969C10.9342 11.278 10.7957 11.4132 10.7284 11.4707C10.7123 11.5133 10.6921 11.5894 10.6942 11.6579C10.6715 11.6213 10.6506 11.597 10.6506 11.6223V12.038C10.6506 12.1353 10.6274 12.2666 10.6158 12.3201V12.6208C10.6045 12.6304 10.5694 12.6522 10.5191 12.6624C10.5074 12.6648 10.4995 12.6659 10.4944 12.6665C10.4894 12.6672 10.4872 12.6675 10.487 12.6683C10.4868 12.669 10.4878 12.6699 10.4896 12.6717C10.4957 12.6776 10.5108 12.6923 10.5191 12.7328C10.5256 12.7647 10.5242 12.8364 10.5227 12.9112C10.5203 13.0317 10.5178 13.1601 10.5481 13.1423C10.5875 13.1193 10.6328 12.8938 10.6506 12.7839C10.6765 12.9262 10.7284 13.2598 10.7284 13.4557C10.7284 13.6515 10.5889 13.5373 10.5191 13.4557C10.5191 13.9787 10.4902 15.0322 10.3745 15C10.2743 14.9721 10.313 13.7575 10.3462 12.7162C10.3609 12.2553 10.3745 11.8284 10.3745 11.5534C10.3745 11.0916 10.4145 10.7334 10.4558 10.3629C10.4787 10.158 10.5019 9.94941 10.5191 9.71748C9.91569 10.1026 8.68949 10.8903 8.61189 10.9606C8.5343 11.0309 7.86382 11.467 7.53829 11.6763C7.38945 11.7935 7.06522 12.0279 6.95902 12.0279H6.76593C5.91715 12.5469 4.15441 13.6276 3.89374 13.7984C3.63307 13.9692 3.55986 13.9533 3.55584 13.924C3.36275 14.1081 2.9814 14.4262 3.00071 14.2253C3.02484 13.9742 5.34191 12.6181 5.45052 12.5678C5.52293 12.5344 5.5417 12.4786 5.56047 12.4227C5.56986 12.3948 5.57924 12.3669 5.59534 12.3418C5.63395 12.2816 8.98158 10.2732 10.6506 9.2765L10.7284 8.44422C10.6812 8.50314 10.5444 8.62099 10.3745 8.62099C10.2046 8.62099 10.1291 8.36075 10.1126 8.23063C10.004 8.52769 9.74449 9.12183 9.5746 9.12183C9.40471 9.12183 9.33392 8.8665 9.31976 8.73883L9.27021 8.78303C9.1428 9.20285 8.8101 9.82154 8.61189 9.82154C8.41369 9.82154 8.30751 9.41644 8.30751 9.12183C8.30751 8.82722 8.41369 8.37057 8.54111 7.87709ZM10.7284 11.7647C10.7777 11.8207 10.7334 11.721 10.6942 11.6579C10.6955 11.6994 10.7049 11.738 10.7284 11.7647ZM12.9075 8.39961C13.0472 8.3379 13.3503 8.20132 13.4452 8.14866C13.5638 8.08284 13.8169 7.97587 13.8367 7.97999C13.8564 7.9841 13.8604 8.04581 13.7773 8.08695C13.6943 8.12809 13.4096 8.26385 13.295 8.30088C13.2652 8.31049 13.2247 8.32677 13.1812 8.3443C13.057 8.39427 12.9075 8.45443 12.9075 8.39961ZM10.6485 11.1481C10.6523 11.0639 10.6654 10.8885 10.688 10.8603C10.7162 10.825 10.7727 10.7898 10.8009 10.8603C10.8235 10.9167 10.7351 11.1148 10.688 11.2069L10.6485 11.1481Z" fill="#E50019"/>
</svg>
